!!!SOCIAL_FUNCTION:	klokali songs
!!!PDT:	1939
!!!OTL: No_48_Modern_Klokali_Song.krn
!!!LANG: Non-Tone
!!!LING_GROUP: Wakashan
!!!REG: Pacific Northwest
**kern	**kern
*staff2	*staff1
=1-	=1-
*clefF4	*clefF4
*k[b-e-]	*k[b-e-]
*M2/4	*M2/4
8GG/L	[2en\
8GG/J	.
8GG^/	.
8r	.
=2||	=2||
*M3/4	*M3/4
2.r	2e\]
.	8f\L
.	8en\J
=3||	=3||
*M2/4	*M2/4
8GG/L	8en\L
8GG/J	8d\J
8GG^/	4r
8r	.
=4	=4
8GG/L	4d\
8GG/J	.
8GG^/	4d\
8r	.
=5	=5
8GG/L	4d\
8GG/J	.
8GG^/	8en\L
8r	8d\J
=6	=6
8GG/L	8d\L
8GG/J	8c\J
8GG^/	8B-\L
8r	8c\J
=7||	=7||
*M3/4	*M3/4
2.r	2B-\
.	4r
=8||	=8||
*M2/4	*M2/4
8GG/L	4d\
8GG/J	.
8GG^/	4d\
8r	.
=9	=9
8GG/L	8d\L
8GG/J	8c\J
8GG^/	8B-\L
8r	8F\J
=10	=10
8GG/L	4B-\
8GG/J	.
8GG^/	8B-\
8r	8r
=11	=11
8GG/L	4d\
8GG/J	.
8GG^/	8d\L
8r	8c#\J
=12	=12
8GG/L	8en\L
8GG/J	8d\J
8GG^/	8d\L
8r	8c#\J
=13	=13
8GG/L	4d\
8GG/J	.
8GG^/	8e-\L
8r	8d\J
=14	=14
8GG/L	8d\L
8GG/J	8c\J
8GG^/	8B-\L
8r	8c\J
=15	=15
8GG/L	2B-\
8GG/J	.
8GG^/	.
8r	.
=16	=16
8GG/L	4B-\
8GG/J	.
8GG^/	4r
8r	.
=17	=17
8GG/L	8c\L
8GG/J	8B-\J
8GG^/	8F\L
8r	8B-\J
=18	=18
8GG/L	4B-\
8GG/J	.
8GG^/	4r
8r	.
==	==
*-	*-
